public/assets/logos/planet-nacho-color.svg

<svg fill="none" height="25" viewBox="0 0 25 25" width="25" xmlns="http://www.w3.org/2000/svg"><path d="m17.2745 17.4804c-2.2644 2.2193-4.7623 4.2034-7.45313 5.92 1.86763.4 3.80933.3379 5.64563-.1804 1.8362-.5183 3.5079-1.4762 4.8605-2.7851 1.3525-1.3089 2.3423-2.9267 2.8779-4.7037.5356-1.7771.5997-3.6561.1864-5.4635-1.7735 2.6042-3.8238 5.0215-6.1173 7.2127z" fill="#fcd900"/><path d="m3.07392 18.5956c.04819.0793.10326.1552.15489.2346-.00178.0079-.00178.0162 0 .0241l.15489.2242.04819.069.15144.207.15833.2035.03442.0414.19619.238.15489.1794.07573.0828c.05851.069.12046.1345.18586.2035l.20996.2139.2134.2104.18931.1794.08949.0759.92933-.345c2.40938-.8658 5.57946-3.1356 8.50856-6.0747 2.9291-2.939 5.2627-6.07123 6.1095-8.47214l.3442-.93138-.0551-.06209-.1515-.16558-.296-.30012-.1962-.19317-.1962-.18283c-.086-.07589-.1755-.15523-.265-.22767-.0895-.07245-.1445-.12419-.2203-.18628-.0129-.00724-.0245-.01656-.0344-.0276l-.1859-.14488-.0688-.05174-.2272-.16903-.1927-.13454h-.0172l-.1171-.08624v-.0138c-.0619-.04484-.1273-.08623-.1927-.12763-2.0175-1.28117-4.3902-1.88377-6.773-1.72011-2.38273.16365-4.65124 1.08501-6.47545 2.63003-1.8242 1.54502-3.10892 3.63309-3.66724 5.96042-.55833 2.32728-.36112 4.77248.56292 6.97968.23983.5764.52768 1.1314.86049 1.6593z" fill="#fcd900"/><path d="m22.9315 8.14247c.1181-.20135.2291-.39922.3471-.59362.1921-.34714.3691-.68734.5311-1.0206 1.305-2.70076 1.6001-4.85999.5692-5.901419-1.0308-1.041427-3.1828-.735942-5.8589.551959.2777.14927.5519.30895.8192.47558.4173.26363.8184.55229 1.2009.86439.4289-.02126.8544.08634 1.2218.30896.0677.04822.1326.10038.1943.15621l.0313.02777c.2343.24598.3891.55688.4442.89216.0364.18282.0527.36907.0486.55543-.0255.68856-.1663 1.36797-.4165 2.00995-.892 2.5272-3.2349 5.91186-6.4454 9.16106-3.2106 3.2493-6.63641 5.5543-9.15976 6.4465-.64105.2495-1.3189.3914-2.00618.42-.1885.0006-.37668-.0157-.56229-.0486-.33406-.0577-.64338-.2136-.88855-.4478l-.02777-.0312c-.0557-.0597-.10675-.1235-.15272-.191-.22527-.3676-.33416-.7948-.31238-1.2254-.31125-.3824-.59872-.7835-.86078-1.2011-.17355-.2661-.33321-.5404-.47899-.8227-1.287703 2.6799-1.572317 4.8287-.5484 5.8528 1.02392 1.0241 3.1967.7359 5.90054-.5693.34709-.1597.66988-.3472 1.01697-.5277.19437-.1076.39568-.2187.597-.3471 3.00811-1.8328 5.77701-4.032 8.24341-6.5471 2.5188-2.4662 4.7201-5.2369 6.553-8.24813z" fill="#fff"/></svg>

<svg width="25" height="25" viewBox="0 0 25 25" fill="none" xmlns="http://www.w3.org/2000/svg">
<path d="M17.2745 17.4804C15.0101 19.6997 12.5122 21.6838 9.82137 23.4004C11.689 23.8004 13.6307 23.7383 15.467 23.22C17.3032 22.7017 18.9749 21.7438 20.3275 20.4349C21.68 19.126 22.6698 17.5082 23.2054 15.7312C23.741 13.9541 23.8051 12.0751 23.3918 10.2677C21.6183 12.8719 19.568 15.2892 17.2745 17.4804Z" fill="#FCD900"/>
<path d="M3.07392 18.5956C3.12211 18.6749 3.17718 18.7508 3.22881 18.8302C3.22703 18.8381 3.22703 18.8464 3.22881 18.8543L3.3837 19.0785L3.43189 19.1475L3.58333 19.3545L3.74166 19.558L3.77608 19.5994L3.97227 19.8374L4.12716 20.0168L4.20289 20.0996C4.2614 20.1686 4.32335 20.2341 4.38875 20.3031L4.59871 20.517L4.81211 20.7274L5.00142 20.9068L5.09091 20.9827L6.02024 20.6377C8.42962 19.7719 11.5997 17.5021 14.5288 14.563C17.4579 11.624 19.7915 8.49177 20.6383 6.09086L20.9825 5.15948L20.9274 5.09739L20.7759 4.93181L20.4799 4.63169L20.2837 4.43852L20.0875 4.25569C20.0015 4.1798 19.912 4.10046 19.8225 4.02802C19.733 3.95557 19.678 3.90383 19.6022 3.84174C19.5893 3.8345 19.5777 3.82518 19.5678 3.81414L19.3819 3.66926L19.3131 3.61752L19.0859 3.44849L18.8932 3.31395H18.876L18.7589 3.22771V3.21391C18.697 3.16907 18.6316 3.12768 18.5662 3.08628C16.5487 1.80511 14.176 1.20251 11.7932 1.36617C9.41047 1.52982 7.14196 2.45118 5.31775 3.9962C3.49355 5.54122 2.20883 7.62929 1.65051 9.95662C1.09218 12.2839 1.28939 14.7291 2.21343 16.9363C2.45326 17.5127 2.74111 18.0677 3.07392 18.5956Z" fill="#FCD900"/>
<path d="M22.9315 8.14247C23.0496 7.94112 23.1606 7.74325 23.2786 7.54885C23.4707 7.20171 23.6477 6.86151 23.8097 6.52825C25.1147 3.82749 25.4098 1.66826 24.3789 0.626831C23.3481 -0.414596 21.1961 -0.109111 18.52 1.17879C18.7977 1.32806 19.0719 1.48774 19.3392 1.65437C19.7565 1.918 20.1576 2.20666 20.5401 2.51876C20.969 2.4975 21.3945 2.6051 21.7619 2.82772C21.8296 2.87594 21.8945 2.9281 21.9562 2.98393L21.9875 3.0117C22.2218 3.25768 22.3766 3.56858 22.4317 3.90386C22.4681 4.08668 22.4844 4.27293 22.4803 4.45929C22.4548 5.14785 22.314 5.82726 22.0638 6.46924C21.1718 8.99644 18.8289 12.3811 15.6184 15.6303C12.4078 18.8796 8.98199 21.1846 6.45864 22.0768C5.81759 22.3263 5.13974 22.4682 4.45246 22.4968C4.26396 22.4974 4.07578 22.4811 3.89017 22.4482C3.55611 22.3905 3.24679 22.2346 3.00162 22.0004L2.97385 21.9692C2.91815 21.9095 2.8671 21.8457 2.82113 21.7782C2.59586 21.4106 2.48697 20.9834 2.50875 20.5528C2.1975 20.1704 1.91003 19.7693 1.64797 19.3517C1.47442 19.0856 1.31476 18.8113 1.16898 18.529C-0.118723 21.2089 -0.403337 23.3577 0.62058 24.3818C1.6445 25.4059 3.81728 25.1177 6.52112 23.8125C6.86821 23.6528 7.191 23.4653 7.53809 23.2848C7.73246 23.1772 7.93377 23.0661 8.13509 22.9377C11.1432 21.1049 13.9121 18.9057 16.3785 16.3906C18.8973 13.9244 21.0986 11.1537 22.9315 8.14247V8.14247Z" fill="white"/>
</svg>
